src/16/panel/mullvadr.svg

<svg xmlns="http://www.w3.org/2000/svg" width="16" height="16" version="1.1">
 <defs>
  <style id="current-color-scheme" type="text/css">
   .ColorScheme-Text { color:#bebebe; } .ColorScheme-Highlight { color:#5294e2; }
  </style>
 </defs>
 <path style="fill:currentColor" class="ColorScheme-Text" d="M 4.5 2 C 3.3738001 2 2 3.15785 2 4.59375 C 2 5.21155 2.216172 6.007025 2.5761719 6.453125 C 2.6554719 6.656325 2.5744656 6.8242406 2.5722656 6.8691406 C 2.5646656 7.0222406 2.8980686 7.0877271 3.7929688 6.7988281 C 5.4135723 6.1611276 6.4711 5.2487 7 4 L 8 4.0078125 L 8 3 L 7 3 C 7 2.2668 5.6262 2 4.5 2 z M 12 3 A 1 1 0 0 0 11 4 A 1 1 0 0 0 12 5 A 1 1 0 0 0 13 4 A 1 1 0 0 0 12 3 z M 9 4 L 9 4.0078125 A 1.0001 1.0001 0 0 1 7.9921875 5.0078125 L 7.46875 5.0039062 C 6.7477582 6.1856235 5.6666772 7.1368893 4.1582031 7.7304688 A 1.0001 1.0001 0 0 1 4.0996094 7.7519531 C 3.6798804 7.8874547 3.357642 7.9547326 3.0390625 7.9785156 C 2.8456037 9.019372 2.5364653 10.300783 2 11 C 2 11 4.668 10.9916 6 11 L 9 11 C 8.747 9.908 6.9061003 7.9765 9 8 L 8.9882812 7.5 C 9.5806335 6.9056393 10.322921 6.3215089 10.955078 5.7011719 A 2 2 0 0 1 10 4 C 9.878014 4.000267 9.8285863 3.99859 9.7070312 4 C 9.1910154 4.00602 9.2696451 4.000864 9 4 z M 6 7 C 7.4074001 7.031573 8 8 8 8 L 6 8 L 6 7 z M 10.707031 9.7578125 L 10 10.464844 L 11.414062 11.878906 L 10 13.292969 L 10.707031 14 L 12.121094 12.585938 L 13.535156 14 L 14.242188 13.292969 L 12.828125 11.878906 L 14.242188 10.464844 L 13.535156 9.7578125 L 12.121094 11.171875 L 10.707031 9.7578125 z"/>
</svg>

<svg xmlns="http://www.w3.org/2000/svg" width="16" height="16"><defs><style id="current-color-scheme" type="text/css"></style></defs><path d="M4.5 2C3.374 2 2 3.158 2 4.594c0 .618.216 1.413.576 1.86.08.202-.002.37-.004.415-.007.153.326.219 1.221-.07C5.413 6.16 6.471 5.249 7 4l1 .008V3H7c0-.733-1.374-1-2.5-1zM12 3a1 1 0 0 0-1 1 1 1 0 0 0 1 1 1 1 0 0 0 1-1 1 1 0 0 0-1-1zM9 4v.008a1 1 0 0 1-1.008 1l-.523-.004c-.721 1.182-1.802 2.133-3.31 2.726a1 1 0 0 1-.06.022c-.42.135-.741.203-1.06.227C2.846 9.019 2.536 10.3 2 11c0 0 2.668-.008 4 0h3c-.253-1.092-2.094-3.024 0-3l-.012-.5c.593-.594 1.335-1.178 1.967-1.799A2 2 0 0 1 10 4h-.293C9.191 4.006 9.27 4 9 4zM6 7c1.407.032 2 1 2 1H6V7zm4.707 2.758l-.707.707 1.414 1.414L10 13.293l.707.707 1.414-1.414L13.535 14l.707-.707-1.414-1.414 1.414-1.414-.707-.707-1.414 1.414-1.414-1.414z" fill="currentColor" color="#bebebe"/></svg>
